!!!OTL: Nachtigall als Warnerin
!!!OTL-incipit:Da droben bei meines Vaters Haus,
!!!ARE: Europa, Mitteleuropa, Deutschland (), Brandenburg
!!!YOR: 6, S. 234
!!    ????
!!!SCT: Q0137D
!!!TXL: @@DE
!!!YEM: Copyright 1995, estate of Helmut Schaffrath.
**kern	**text
*ICvox	*
*M6/4	*
*k[]	*
*C:	*
!LO:TX:a:t=12 Brandenburg	!
{4g	Da
=1	=1
4.e	dro-
8e	-ben
4e	bei
2g	mei-
4g	-nes
=2	=2
2cc	Va-
4cc	-ters
2g}	Haus,
{4g	steht
=3	=3
2a	ei-
4cc	-ne
2b	grü-
4dd	-ne
=4	=4
2.dd	Lin-
2cc}	-de,
{4g	dar-
=5	=5
2ee	-in-
4ee	-nen
4ee	sit-
4dd	-zet
4cc	Frau
=6	=6
2b	Nach-
4a	-ti-
2a}	-gall
{4a	und
=7	=7
2b	singt
4b	in
2dd	al-
4dd	-le
=8	=8
2.dd	Win-
2cc;}	-de.
==	==
!!!AGN: Ballade, Allegorie; lyrisch (?)
!!!ONB: ESAC (Essen Associative Code) Database: BALLADE
!!!AMT: compound duple
!!!AIN: vox
!!!EED: Helmut Schaffrath
!!!EEV: 1.0
!!!source: Deutsche Volkslieder mit ihren Melodien Balladen. Herausgegeben vom Deutschen Volksliedarchiv. Sechster Band. Freiburg/Breisgau 1976.
!!!page: 234
!!!ENC: Anna Maria Matuszewska
!!!EEV: 2025/03/06
*-	*-
